X:43
T:Coachman's Whip, The
M:C|
L:1/8
S:The Moving Cloud
R:reel
K:G
d2 BG DGBG|E2 BE dEBd|d2 BG DGBG|FGEc BGBc|d2 BG DGBG|E2 BE dEBE|!
DEGA Bdef|1gedc BGBc :|2gedc BGGE ||
|:D3  E GABc|d2 BG DGBG |E2 BE dEBd|!
dBAG EFGE|D3  E GABc|d2 BG DGBG|DEGA Bdef|1gedc BGGE :|2gedc BG"D.C."Bc
||!
"Schluﬂ" gedc .B2 .A2 |G8   ||
